X:46
T:Chinese Breakdown
F:http://www.banjolin.co.uk/tunes/abcs/chinesebreakdown.abc
O:America
C:Trad
R:Breakdown
M:2/4
L:1/8
K:D
A |: dd BA | F F2 A | dd BA | E3 A | cc BA | c c2 B | AA BA | F3 A |
  | dd BA | F F2 E | D2 EF | G3 d | e e2 f/2e/2 | c c2 B | A>A Bc |1 d3 A:|2 d3 d|
  |: f a/2f/2 ed | f f3 | f a/2f/2 ed | c3 e | a a2 a | g g2 e | c2 cB| A2 A2|
  | f a/2f/2 ed | f f2 e | d>d c=c | B2 B2 |e e2 f/2e/2|c c2 B|A>A Bc |1 d3 d:|2 d3 A|



